X:611
T:Mäster Karls Polska
R:Polska
Z:Patrik Månsson, 5/10-08
O:Småland
M:3/4
L:1/16
K:G

 D2 |: "G" G2G2 B2B2 d2d2 | g2g2 b2g2 d4 | (dc)Bc (dc)Bc "D" (A2f2) | (5(fgf)ef (5(fgf)ef "G" d2B2 | G2G2 B2B2 d2d2 |
g2g2 b2g2 d4 | (dc)Bc (dc)Bc "D" (A2f2) | (5(fgf)ef "G" g2 z2 [gBD]2 z2 :| "C" e2ge (c2e2) (c2ed) | "G" B2dB G2B2 GBdB |
"D" A2cA F2AF D2F2 | "G" G2A2 B2c2 d2g2 | "C" e2ge (c2e2) c2ed |"G" B2dB G2B2 GBdB | "D" A2cA F2AF D2EF | "G" [GB,]4 [GB,]4 z4 |



(:musicend:)

(:title Polska efter J. M. Dahl (Sv. L. Sm. 156):)

(:music:)
